X:1
T:We Are Well Able
T:Kittie Louise Suffield, 1922
T:We Are Well Able
T:Public Domain
T:Public Domain
T:Public Domain
C:Kittie Louise Suffield, 1922
Z:Public Domain
%%score ( 1 2 ) ( 3 4 )
L:1/8
M:4/4
K:C
V:1 treble 
V:2 treble 
V:3 bass 
V:4 bass 
V:1
 [EG]>[EG] | [Ec]>[Ec] [Ec]>[Ec] [EA]>[EG] [CE]>[DF] | [EG]2 [FA]2 [EG]2 [EG]>[EG] | %3
w: 1.~’Twas the|Lord of hosts that led us out of|E- gypt’s sand; And He|
w: 2.~When the|spies brought back the mes- sage, this is|what they said: “A- gainst|
w: 3.~When we|crossed the riv- er Jor- dan, in the|land we found: Wine and|
w: 4.~There’s no|thirst- ing for old E- gypt, since we’re|in this way, And we|
 [Ec]>[Ec] [Ec]>[Ec] [EA]>[EG] [EG]>[Ec] | [Gd]2 [^Fd]2 [=Fd]2 [FG]>[FG] | %5
w: led us through the Red Sea by His|might- y hand, Nev- er|
w: gi- ants and walled ci- ties, we can-|not be led”; But a|
w: oil and milk and hon- ey, rich- est|fruits a- bound; Spark- ling|
w: care not what the cri- tics or the|ten spies say; For the|
 [Ec]>[Ec] [Ec]>[Ec] [EA]>[EG] [CE]>[DF] | [EG]2 [FA]2 [EG]2 [EG]>[EG] | %7
w: halt- ing in the wil- der- ness, but|His com- mand Gave as-|
w: Ca- leb and a Josh- ua said, “They’ll|be as bread”; We are|
w: fount- ains, and the show- ers come up-|on the ground; We are|
w: land a- bounds in plen- ty, and we’re|here to stay, Won’t you|
 [FA]>[GB] [Ac]>[Ad] [Ge]>[Fd] [Ec]>[EA] | [Ec]2 [Fd]2 [Ec]2 ||"^Refrain" [EG]>[EG] | %10
w: sur- ance we were a- ble to pos-|sess the land.||
w: a- ble to go up, pos- sess the|land a- head.|We are|
w: a- ble, Hal- le- lu- jah! Let God’s|praise re- sound.||
w: come and join us, bro- ther, en- ter|in to- day?||
 [Ec]>[Ec] [Ec]>[Ec] | [EA]>[EG] [CE]>[DF] | [EG]2 [EG]4 [EG]>[EG] | c>c c>c A>G G>c | %14
w: ||||
w: a- ble to go|up and take the|count- ry, And pos-|sess the land from Jor- dan to the|
w: ||||
w: ||||
 (G>G ^F>F =F2) [FG]>[FG] | [Ge]>[Ge] [Ge]>[Fd] [Ec]>[EB] [Ed]>[Ec] | [FA]2 [Ac]4 [GB]>[FA] | %17
w: |||
w: ants * * * * tall be|our way to hin- der, God will sure-|ly give the vic-|
w: |||
w: |||
 [EG]>[Fc] [Gc]>[Ad] [Gc]2 [FB]2 | [Ec]6 |] %19
w: ||
w: to- ry. * * * *||
w: ||
w: ||
V:2
 x2 | x8 | x8 | x8 | x8 | x8 | x8 | x8 | x6 || x2 | x4 | x4 | x8 | E2 E2 E2 E2 | d6 x2 | x8 | x8 | %17
w: |||||||||||||||||
w: |||||||||||||sea; And, though gi-|there|||
 x8 | x6 |] %19
w: ||
w: ||
V:3
 [C,C]>[C,C] | [C,G,]>[C,G,] [C,G,]>[C,G,] [C,C]>[C,C] [C,G,]>[C,G,] | %2
w: ~ ~|~ ~ ~ ~ ~ ~ ~ ~|
 [C,C]2 [C,C]2 [C,C]2 [C,C]>[C,C] | [C,G,]>[C,G,] [C,G,]>[C,G,] [C,C]>[C,C] [C,C]>C | %4
w: ~ ~ ~ ~ ~|~ ~ ~ ~ ~ ~ ~ ~|
 [B,D]2 [A,C]2 [G,B,]2 [B,,G,]>[B,,G,] | [C,G,]>[C,G,] [C,G,]>[C,G,] [C,C]>[C,C] [C,G,]>[C,G,] | %6
w: ~ ~ ~ ~ ~|~ ~ ~ ~ ~ ~ ~ ~|
 [C,C]2 [C,C]2 [C,C]2 [C,C]>[C,C] | [F,C]>[F,C] [^F,C]>[F,C] [G,C]>[G,C] [G,C]>[G,C] | %8
w: ~ ~ ~ ~ ~|~ ~ ~ ~ ~ ~ ~ ~|
 [G,C]2 [G,B,]2 [C,C]2 || [C,C]>[C,C] | [C,G,]>[C,G,] [C,G,]>[C,G,] | [C,C]>[C,C] [C,G,]>[C,G,] | %12
w: ~ ~ ~|~ ~|~ ~ ~ ~|~ ~ ~ ~|
 [C,C]2 [C,C]4 [C,C]>[C,C] | [C,G,]2 [C,G,]2 [C,C]2 [C,C]2 | %14
w: ~ And pos- sess|the land from Jor-|
 [G,B,]>[G,B,] [A,C]>[A,C] [G,B,]2 [G,B,]>[G,B,] | %15
w: dan to the sea; * * *|
 [C,C]>[C,C] [C,C]>[C,G,] [C,G,]>[C,G,] [C,G,]>[C,G,] | [F,A,]2 [F,A,]4 F,>[F,A,] | %17
w: ||
 [C,C]>[D,C] [E,C]>[F,C] [G,E]2 [G,,D]2 | [C,C]6 |] %19
w: ||
V:4
 x2 | x8 | x8 | x15/2 C/ | x8 | x8 | x8 | x8 | x6 || x2 | x4 | x4 | x8 | x8 | x8 | x8 | %16
w: |||~|||||||||||||
 x6 F,3/2 x/ | x8 | x6 |] %19
w: |||

